icons-rebrand/svg/audio-call-regular.svg

<svg width="32" height="32" viewBox="0 0 32 32" fill="none" xmlns="http://www.w3.org/2000/svg">
<path d="M27.997 13.75C27.7981 13.75 27.6073 13.671 27.4667 13.5303C27.326 13.3897 27.247 13.1989 27.247 13C27.2213 10.9223 26.402 8.93313 24.957 7.44C24.1986 6.61077 23.2794 5.94463 22.2552 5.48216C21.2311 5.01969 20.1235 4.77058 19 4.75C18.8011 4.75 18.6103 4.67098 18.4697 4.53033C18.329 4.38968 18.25 4.19891 18.25 4C18.25 3.80109 18.329 3.61032 18.4697 3.46967C18.6103 3.32902 18.8011 3.25 19 3.25C20.3282 3.27083 21.6382 3.56203 22.8501 4.10584C24.062 4.64965 25.1505 5.43467 26.049 6.413C27.7567 8.18345 28.722 10.5403 28.747 13C28.747 13.1989 28.668 13.3897 28.5273 13.5303C28.3867 13.671 28.1959 13.75 27.997 13.75Z" fill="#0F0F0F"/>
<path d="M23.9999 14.7431C23.801 14.7431 23.6102 14.6641 23.4696 14.5234C23.3289 14.3828 23.2499 14.192 23.2499 13.9931C23.3032 13.2955 23.2118 12.5944 22.9814 11.9337C22.751 11.2731 22.3865 10.6672 21.9109 10.1541C20.8405 9.19555 19.4386 8.69192 18.0029 8.75009H17.9999C17.801 8.75049 17.6101 8.67186 17.4691 8.53149C17.3282 8.39112 17.2488 8.20051 17.2484 8.0016C17.248 7.80268 17.3266 7.61176 17.467 7.47083C17.6074 7.32989 17.798 7.25049 17.9969 7.25009H18.0369C19.8549 7.1843 21.6247 7.84245 22.9579 9.08009C23.5811 9.72985 24.0623 10.5022 24.3708 11.348C24.6793 12.1939 24.8084 13.0947 24.7499 13.9931C24.7499 14.192 24.6709 14.3828 24.5302 14.5234C24.3896 14.6641 24.1988 14.7431 23.9999 14.7431ZM21.5199 29.7521C18.3519 29.7521 13.7619 28.1481 8.8069 23.1931C4.6369 19.0231 3.1089 15.3501 2.5619 13.0031C1.9289 10.2831 2.2679 7.86009 3.4479 6.68009L4.9189 5.21009C5.54217 4.61471 6.37095 4.28247 7.2329 4.28247C8.09485 4.28247 8.92363 4.61471 9.5469 5.21009L12.3009 7.96309C12.9109 8.5751 13.2535 9.40398 13.2535 10.2681C13.2535 11.1322 12.9109 11.9611 12.3009 12.5731C12.2959 12.5771 11.0149 13.8381 10.5359 14.3131C10.572 16.1986 11.3371 17.9969 12.6706 19.3304C14.0041 20.6639 15.8024 21.429 17.6879 21.4651C18.1609 20.9871 19.4239 19.7041 19.4239 19.7041C20.0441 19.1086 20.8703 18.7758 21.7301 18.775C22.5899 18.7743 23.4167 19.1057 24.0379 19.7001L26.7909 22.4531C27.404 23.0671 27.7484 23.8994 27.7484 24.7671C27.7484 25.6348 27.404 26.4671 26.7909 27.0811L25.3189 28.5531C24.2509 29.4211 22.8927 29.8501 21.5199 29.7531V29.7521ZM9.8669 22.1321C16.9019 29.1661 22.9269 28.8221 24.2589 27.4911L25.7299 26.0191C26.0617 25.6865 26.2481 25.2359 26.2481 24.7661C26.2481 24.2963 26.0617 23.8457 25.7299 23.5131L22.9769 20.7591C22.6417 20.439 22.1959 20.2603 21.7324 20.2603C21.2689 20.2603 20.8231 20.439 20.4879 20.7591C20.4879 20.7591 19.0149 22.2571 18.6509 22.6221C17.7879 23.4821 13.9099 22.6881 11.6109 20.3891C10.5122 19.2584 9.71931 17.8668 9.3069 16.3451C9.1589 15.8061 8.7289 13.9971 9.3769 13.3491C9.7419 12.9851 11.2449 11.5071 11.2449 11.5071C11.5731 11.1765 11.7568 10.7294 11.7559 10.2636C11.755 9.79776 11.5694 9.35133 11.2399 9.0221L8.4869 6.27009C8.14924 5.94764 7.7003 5.76771 7.2334 5.76771C6.7665 5.76771 6.31756 5.94764 5.9799 6.27009L4.5079 7.7411C3.8709 8.3791 3.4479 10.1911 4.0229 12.6641C4.5259 14.8191 5.9479 18.2131 9.8669 22.1331V22.1321Z" fill="#0F0F0F"/>
</svg>

<svg width="32" height="32" viewBox="0 0 32 32" fill="none" xmlns="http://www.w3.org/2000/svg"><path d="M27.997 13.75a.75.75 0 0 1-.75-.75 8.14 8.14 0 0 0-2.29-5.56A8.278 8.278 0 0 0 19 4.75a.75.75 0 1 1 0-1.5 9.779 9.779 0 0 1 7.049 3.163A9.629 9.629 0 0 1 28.747 13a.75.75 0 0 1-.75.75z" fill="#0F0F0F"/><path d="M24 14.743a.75.75 0 0 1-.75-.75 5.078 5.078 0 0 0-1.339-3.839 5.523 5.523 0 0 0-3.908-1.404H18a.75.75 0 0 1-.003-1.5h.04a6.868 6.868 0 0 1 4.921 1.83 6.488 6.488 0 0 1 1.792 4.913.75.75 0 0 1-.75.75zM21.52 29.752c-3.168 0-7.758-1.604-12.713-6.559-4.17-4.17-5.698-7.843-6.245-10.19-.633-2.72-.294-5.143.886-6.323L4.919 5.21a3.35 3.35 0 0 1 4.628 0l2.754 2.753a3.265 3.265 0 0 1 0 4.61c-.005.004-1.286 1.265-1.765 1.74a7.293 7.293 0 0 0 7.152 7.152c.473-.478 1.736-1.761 1.736-1.761a3.334 3.334 0 0 1 4.614-.004l2.753 2.753a3.275 3.275 0 0 1 0 4.628l-1.472 1.472a5.418 5.418 0 0 1-3.799 1.2zm-11.653-7.62c7.035 7.034 13.06 6.69 14.392 5.359l1.471-1.472a1.774 1.774 0 0 0 0-2.506l-2.753-2.754a1.802 1.802 0 0 0-2.489 0s-1.473 1.498-1.837 1.863c-.863.86-4.741.066-7.04-2.233a9.29 9.29 0 0 1-2.304-4.044c-.148-.539-.578-2.348.07-2.996.365-.364 1.868-1.842 1.868-1.842a1.76 1.76 0 0 0-.005-2.485L8.487 6.27a1.815 1.815 0 0 0-2.507 0L4.508 7.741c-.637.638-1.06 2.45-.485 4.923.503 2.155 1.925 5.549 5.844 9.469z" fill="#0F0F0F"/></svg>
